X:26
T:Hanover Hole. ThoH.026
Q:1/2=90
M:3/2
L:1/8
B:Thompson's Compleat Collection of 120 Favourite Hornpipes.
Z:Village Music Project, Simon Wilson 2016
O:England.
K:Bb
B4dcBA Bcd2|F2G2A2B2cde2|d2gf edcB ABcA|F2B2ABcAB4:|
|:B2F2GABA GFED|C2c4d2edcB|A2a2bagf edcB|F2B2ABcAB4:|
|:B,CDE F2D2G2E2|A2F4GAB2AB|c2Bcd2cd edcB|F2B2ABcAB4:|
|:d2f2Bcdef2B2|A2G2F2a2b2f2|g2f2b2d2c2B2|F2B2ABcAB4:|
|:BAGF EDEC B,CDE|F2A4c4d2|e2d2cdBc ABGA|F2B2ABcAB4:|
|:b2(f_a) gfed edcB|ABcd edcB AGFE|DEFD GEAF BGcA|F2B2ABcAB4:|

